icons/Staricons.svg

<svg width="16" height="16" viewBox="0 0 16 16" fill="none" xmlns="http://www.w3.org/2000/svg">
<g clip-path="url(#clip0_4_1055)">
<path d="M10.0443 4.12807L10.2999 4.66213C10.3729 4.77657 10.4459 4.89101 10.5554 5.00545C10.6649 5.08174 10.811 5.15804 10.9205 5.15804L14.279 5.6921C14.425 5.73025 14.5711 5.76839 14.7171 5.88283C14.8266 5.99728 14.9361 6.11172 14.9726 6.26431C15.0091 6.41689 15.0091 6.56948 14.9726 6.76022C14.9361 6.91281 14.8631 7.0654 14.7536 7.17984L12.3077 9.6594C12.1982 9.77384 12.1252 9.88828 12.0887 10.0027C12.0522 10.1553 12.0522 10.2698 12.0522 10.4223L12.6362 13.9319C12.6728 14.0845 12.6362 14.2752 12.5997 14.4278C12.5267 14.5804 12.4537 14.6948 12.3077 14.8093C12.1982 14.9237 12.0156 14.9619 11.8696 14.9619C11.7236 14.9619 11.5411 14.9237 11.4316 14.8474L8.40156 13.2071C8.29205 13.1308 8.14602 13.0926 8 13.0926C7.85398 13.0926 7.74446 13.1308 7.59844 13.2071L4.56845 14.8856C4.42243 14.9619 4.2764 15 4.13038 15C3.98435 15 3.83833 14.9237 3.69231 14.8474C3.58279 14.733 3.47327 14.6185 3.40026 14.4659C3.32725 14.3134 3.32725 14.1608 3.36375 13.97L3.94785 10.4605C3.98435 10.3079 3.94785 10.1935 3.91134 10.0409C3.87484 9.88828 3.80183 9.77384 3.69231 9.69755L1.24641 7.21798C1.1369 7.10354 1.06389 6.95095 1.02738 6.79837C0.990874 6.64578 0.990874 6.45504 1.02738 6.30245C1.06389 6.14986 1.1734 5.99728 1.28292 5.92098C1.39244 5.80654 1.53846 5.73025 1.72099 5.73025L5.07953 5.23433C5.22555 5.19619 5.33507 5.15804 5.44459 5.08174C5.55411 5.00545 5.62712 4.89101 5.70013 4.77657L7.26988 1.45777C7.34289 1.30518 7.45241 1.19074 7.59844 1.11444C7.74446 1.03815 7.89048 1 8.03651 1C8.18253 1 8.36506 1.03815 8.47458 1.11444C8.58409 1.19074 8.69361 1.30518 8.76662 1.45777L9.13168 2.25886M9.13168 2.25886L9.2412 2.48774" stroke="#3D3D3D" stroke-linecap="round" stroke-linejoin="round"/>
</g>
<defs>
<clipPath id="clip0_4_1055">
<rect width="16" height="16" fill="white"/>
</clipPath>
</defs>
</svg>

<svg xmlns="http://www.w3.org/2000/svg" width="16" height="16" fill="currentColor" class="si si-Staricons" viewBox="0 0 16 16">
  <g clip-path="url(#a)">
    <path stroke="#3D3D3D" stroke-linecap="round" stroke-linejoin="round" d="m10.044 4.128.256.534c.073.115.146.229.255.343.11.077.256.153.366.153l3.358.534c.146.038.292.076.438.19.11.115.22.23.256.382.036.153.036.305 0 .496a.9.9 0 0 1-.22.42l-2.445 2.48a.9.9 0 0 0-.22.343c-.036.152-.036.267-.036.42l.584 3.509c.037.152 0 .343-.036.496a.96.96 0 0 1-.292.381c-.11.115-.292.153-.438.153a.84.84 0 0 1-.438-.115l-3.03-1.64A.7.7 0 0 0 8 13.093a.8.8 0 0 0-.402.114l-3.03 1.679A.94.94 0 0 1 4.13 15c-.146 0-.292-.076-.438-.153a1.5 1.5 0 0 1-.292-.381c-.073-.153-.073-.305-.036-.496l.584-3.51c.036-.152 0-.267-.037-.42a.56.56 0 0 0-.219-.342l-2.446-2.48a.9.9 0 0 1-.219-.42 1.1 1.1 0 0 1 0-.496.7.7 0 0 1 .256-.381.6.6 0 0 1 .438-.19l3.359-.497c.146-.038.255-.076.365-.152.11-.077.182-.191.255-.305l1.57-3.32a.73.73 0 0 1 .328-.343A.94.94 0 0 1 8.037 1c.146 0 .328.038.438.114s.219.191.292.344l.365.8m0 0 .11.23"/>
  </g>
  <defs>
    <clipPath id="a">
      <path d="M0 0h16v16H0z"/>
    </clipPath>
  </defs>
</svg>
